X: 10
T:North of the Grampians
M:4/4
L:1/8
Q:120
C:Capt. S. Fraser
S:James G-H learnt this tune from J Hunter
R:Strathspey
K:C
|:"C"E&gt;F G&gt;A G<E G ?G?d2|?C?E c<e G<c F E<c|E>F G&gt;A G<E E>G|"G7"F&gt;D B,<G ?C?e F2:|! D C B, ,>c e/f/g e<C c>f|e<C e>f e/f/g "F"f/g/a|e&gt;c e/f/g e<C c>e|"G7"f&gt;d B&lt;
G B/c/d f2|!
"C"e&gt;c e/f/g e<C c>f|e<C e>f e/f/g "F"f/g/a|"C"(3gfe "G"(3dcB "C"(3cBA (
3GFE|"G7"F&gt;DB,<G, D C B, F2||>

